X: 39954
T: Thousand Tall Ships
R: reel
M: 4/4
K: Edorian
ef|:g/f/e fd edBe|dBAF DE F/E/D|FEED EFGA|Bee^d e3f|
g/f/e be gfeg|fedf edBc|dfed BcdB|1 AGFG E2ef:|2 AGFG E2 DE/F/||
|:G2GF GBAG|F/E/D A2 BAGF|GFEF GABd|~e2df e3f|
g/f/e be gfeg|fedf edBc|dfed BcdB|1 AGFG E2 DE/F/:|2 AGFG E2ef||

